Adwaita++/devices/16/audio-speakers-bluetooth.svg

<svg fill="none" height="16" viewBox="0 0 16 16" width="16" xmlns="http://www.w3.org/2000/svg">
  <g fill="#444">
    <path d="m1 5h2.48438l2.96874-3 .54688.01559v12.00001l-.4753.0008-3.04032-3.0164h-2.48438z"/>
    <path clip-rule="evenodd" d="m9.97101 2.20711c0-.44546.53859-.66854.85359-.35356l3.1942 3.19419c.4118.4119.3859 1.08727-.0564 1.46636l-1.7335 1.4859 1.7335 1.4859c.4423.37909.4682 1.0545.0564 1.4664l-3.1942 3.1941c-.315.315-.85359.0919-.85359-.3535v-3.85758l-.7161.61378c-.18501.1586-.42157.2442-.66522.2407l-.58969-.0086v-.6551c0-.29197.12756-.56932.34921-.7593l1.5946-1.3668-1.60094-1.37223c-.21798-.18684-.34514-.45836-.34911-.74544l-.00938-.67921.61445.00104c.23814.0004.46831.08577.64911.24074l.72307.61978zm1.48709 7.09088 1.1372.97471-1.1372 1.1371zm0-2.59598v-2.1118l1.1372 1.13712z" fill-rule="evenodd"/>
  </g>
</svg>

<svg xmlns="http://www.w3.org/2000/svg" fill="none" width="16" height="16" viewBox="0 0 16 16">
 <path fill="#444" d="M1 5H3.48438L6.45312 2L7 2.01559V14.0156L6.5247 14.0164L3.48438 11H1V5Z"/>
 <path fill="#444" fill-rule="evenodd" d="M9.97101 2.20711C9.97101 1.76165 10.5096 1.53857 10.8246 1.85355L14.0188 5.04774C14.4306 5.45964 14.4047 6.13501 13.9624 6.5141L12.2289 8L13.9624 9.4859C14.4047 9.86499 14.4306 10.5404 14.0188 10.9523L10.8246 14.1464C10.5096 14.4614 9.97101 14.2383 9.97101 13.7929V9.93532L9.25491 10.5491C9.0699 10.7077 8.83334 10.7933 8.58969 10.7898L8 10.7812V10.1261C8 9.83413 8.12756 9.55678 8.34921 9.3668L9.94381 8L8.34287 6.62777C8.12489 6.44093 7.99773 6.16941 7.99376 5.88233L7.98438 5.20312L8.59883 5.20416C8.83697 5.20456 9.06714 5.28993 9.24794 5.4449L9.97101 6.06468V2.20711ZM11.4581 9.29799L12.5953 10.2727L11.4581 11.4098V9.29799ZM11.4581 6.70201V4.59021L12.5953 5.72733L11.4581 6.70201Z" clip-rule="evenodd"/>
</svg>
